X: 150
T: Enshult 2
S: efter Ludvig Olsson
O: Malexander, Östergötland
D: [[Grupper/Sågskära]] - Orm
Z: Transcribed to abc by Jon Magnusson 080404 
R: Polska
M: 3/4
L: 1/8
K: Gm
D|:G/2^F/2G/2A/2 B/2A/2G/2^F/2 ^FG|GB/2d/2 d3/2 e/8d/8c/8d/8 BA|Gg ^f/2g/2a/2^f/2 gd|
d/2e/2d/2c/2 B/2d/2c/2B/2 A/2B/2A/2G/2|^F/2G/2^F/2=E/2 D/2=E/2D/2C/2 B,G,| G/2^F/2G/2A/2 B/2A/2G/2^F/2 ^FG|GB/2d/2 d3/2e/8d/8c/8d/8 BA|
Gg ^f/2g/2a/2^f/2 gd|d/2e/2d/2c/2 B/2d/2c/2B/2 A/2B/2A/2G/2|[1 ^F/2G/2A/2^F/2 G3D:|[2 ^F/2G/2A/2^F/2 G3B|]:
d/2B/2G/2B/2 d/2B/2G/2B/2 d/2B/2G/2B/2|e3/2d/2 cB c2|e/2c/2A/2c/2 e/2c/2A/2c/2 e/2c/2A/2c/2|^f3/2=e/2 d^c d2|
d/2B/2G/2B/2 d/2B/2G/2B/2 d/2B/2G/2B/2|_e3/2d/2 cB c2|e/2c/2A/2c/2 e/2c/2A/2c/2 e/2c/2A/2c/2|^f3/2=e/2 d^cd2|
gb/2g/2 dg/2d/2 Bd/2B/2|A^F/2A/2 cA/2c/2 _e2|dB/2d/2d/2c/2 A/2c/2 BG/2B/2|AG/2^F/2G2:|
(:musicend:)

(:music:)
